Numix/22/mimetypes/text-x-gtkrc.svg

<svg xmlns="http://www.w3.org/2000/svg" viewBox="0 0 22 22">
 <path d="m 4 0 c -0.473 0 -1 0.527 -1 1 l 0 20 c 0 0.445 0.555 1 1 1 l 14 0 c 0.445 0 0.992 -0.555 1 -1 l 0 -15 -6 -6 z" style="fill:#dc322f;fill-opacity:1"/>
 <path d="m 14 6 5 5 0 -5 z" style="fill:#000;fill-opacity:0.196"/>
 <path d="m 13 0 6 6 -5 0 c -0.445 0 -1 -0.555 -1 -1 z" style="fill:#fff;fill-opacity:0.392"/>
 <path d="m 7 13 c -0.554 0 -1 0.446 -1 1 l 0 3 c 0 0.554 0.446 1 1 1 l 3 0 c 0.554 0 1 -0.446 1 -1 l 0 -3 c 0 -0.554 -0.446 -1 -1 -1 z m 2.717 1 0.533 0.539 -2.534 2.461 -1.066 -1.078 0.533 -0.541 0.533 0.541" style="fill:#fff;opacity:1;fill-opacity:1;stroke:none"/>
 <path d="m 7 8 c -0.554 0 -1 0.446 -1 1 l 0 2 c 0 0.554 0.446 1 1 1 l 8 0 c 0.554 0 1 -0.446 1 -1 l 0 -2 c 0 -0.554 -0.446 -1 -1 -1 l -8 0 z m 0 1 l 5 0 l 0 2 l -5 0 l 0 -2 z m 6 0 l 2 0 l 0 2 l -2 0 l 0 -2 z" style="fill:#fff;opacity:1;fill-opacity:1;stroke:none"/>
 <path d="M 13.5 13 A 2.5 2.5 0 0 0 11 15.5 A 2.5 2.5 0 0 0 13.5 18 A 2.5 2.5 0 0 0 16 15.5 A 2.5 2.5 0 0 0 13.5 13 z M 13.5 13.75 A 1.75 1.75 0 0 1 15.25 15.5 A 1.75 1.75 0 0 1 13.5 17.25 A 1.75 1.75 0 0 1 11.75 15.5 A 1.75 1.75 0 0 1 13.5 13.75 z M 13.5 14.5 A 1 1 0 0 0 12.5 15.5 A 1 1 0 0 0 13.5 16.5 A 1 1 0 0 0 14.5 15.5 A 1 1 0 0 0 13.5 14.5 z" style="fill:#fff;opacity:1;fill-opacity:1;stroke:none"/>
</svg>

<?xml version="1.0" encoding="UTF-8" standalone="no"?>
<svg
   xmlns:dc="http://purl.org/dc/elements/1.1/"
   xmlns:cc="http://creativecommons.org/ns#"
   xmlns:rdf="http://www.w3.org/1999/02/22-rdf-syntax-ns#"
   xmlns:svg="http://www.w3.org/2000/svg"
   xmlns="http://www.w3.org/2000/svg"
   xmlns:sodipodi="http://sodipodi.sourceforge.net/DTD/sodipodi-0.dtd"
   xmlns:inkscape="http://www.inkscape.org/namespaces/inkscape"
   width="22"
   height="22"
   viewBox="0 0 22 22"
   id="svg2"
   version="1.1"
   inkscape:version="0.91 r13725"
   sodipodi:docname="text-x-gtkrc.svg">
  <metadata
     id="metadata24">
    <rdf:RDF>
      <cc:Work
         rdf:about="">
        <dc:format>image/svg+xml</dc:format>
        <dc:type
           rdf:resource="http://purl.org/dc/dcmitype/StillImage" />
        <dc:title />
      </cc:Work>
    </rdf:RDF>
  </metadata>
  <defs
     id="defs22" />
  <sodipodi:namedview
     pagecolor="#ffffff"
     bordercolor="#666666"
     borderopacity="1"
     objecttolerance="10"
     gridtolerance="10"
     guidetolerance="10"
     inkscape:pageopacity="0"
     inkscape:pageshadow="2"
     inkscape:window-width="1366"
     inkscape:window-height="704"
     id="namedview20"
     showgrid="false"
     inkscape:zoom="1"
     inkscape:cx="9.4219367"
     inkscape:cy="6.6470733"
     inkscape:window-x="0"
     inkscape:window-y="27"
     inkscape:window-maximized="1"
     inkscape:current-layer="svg2"
     inkscape:object-nodes="true">
    <inkscape:grid
       type="xygrid"
       id="grid3012"
       empspacing="5"
       visible="true"
       enabled="true"
       snapvisiblegridlinesonly="true" />
  </sodipodi:namedview>
  <path
     style="fill:#dc322f;fill-opacity:1"
     d="M 4,0 C 3.527343,0 3,0.527344 3,1 l 0,20 c 0,0.445312 0.554687,1 1,1 l 14,0 c 0.445313,0 0.992367,-0.554753 1,-1 L 19,6 13,0 z"
     id="path4"
     inkscape:connector-curvature="0"
     sodipodi:nodetypes="ssssssccs" />
  <g
     style="fill:#ffffff"
     id="g10"
     transform="matrix(1.6666667,0,0,1.6666667,-2.3333333,-2)" />
  <path
     style="fill:#000000;fill-opacity:0.19599998"
     d="m 14,6 5,5 0,-5 z"
     id="path6"
     inkscape:connector-curvature="0"
     sodipodi:nodetypes="cccc" />
  <path
     style="fill:#ffffff;fill-opacity:0.39200003"
     d="m 13,0 6,6 -5,0 C 13.554688,6 13,5.445312 13,5 z"
     id="path8"
     inkscape:connector-curvature="0"
     sodipodi:nodetypes="ccssc" />
  <path
     style="opacity:1;fill:#ffffff;fill-opacity:1;stroke:none;stroke-width:3;stroke-linecap:round;stroke-linejoin:round;stroke-miterlimit:4;stroke-dasharray:none;stroke-opacity:1"
     d="m 7,13 c -0.554,0 -1,0.446 -1,1 l 0,3 c 0,0.554 0.446,1 1,1 l 3,0 c 0.554,0 1,-0.446 1,-1 l 0,-3 c 0,-0.554 -0.446,-1 -1,-1 z M 9.7167969,14 10.25,14.539062 7.7162031,17 6.6497969,15.921875 7.183,15.380859 7.7162031,15.921875 Z"
     id="rect4141"
     inkscape:connector-curvature="0"
     sodipodi:nodetypes="sssssssssccccccc" />
  <path
     style="opacity:1;fill:#ffffff;fill-opacity:1;stroke:none;stroke-width:3;stroke-linecap:round;stroke-linejoin:round;stroke-miterlimit:4;stroke-dasharray:none;stroke-opacity:1"
     d="M 7 8 C 6.446 8 6 8.446 6 9 L 6 11 C 6 11.554 6.446 12 7 12 L 15 12 C 15.554 12 16 11.554 16 11 L 16 9 C 16 8.446 15.554 8 15 8 L 7 8 z M 7 9 L 12 9 L 12 11 L 7 11 L 7 9 z M 13 9 L 15 9 L 15 11 L 13 11 L 13 9 z "
     id="rect4145" />
  <path
     style="opacity:1;fill:#ffffff;fill-opacity:1;stroke:none;stroke-width:3;stroke-linecap:round;stroke-linejoin:round;stroke-miterlimit:4;stroke-dasharray:none;stroke-opacity:1"
     d="M 13.5 13 A 2.5 2.5 0 0 0 11 15.5 A 2.5 2.5 0 0 0 13.5 18 A 2.5 2.5 0 0 0 16 15.5 A 2.5 2.5 0 0 0 13.5 13 z M 13.5 13.75 A 1.75 1.75 0 0 1 15.25 15.5 A 1.75 1.75 0 0 1 13.5 17.25 A 1.75 1.75 0 0 1 11.75 15.5 A 1.75 1.75 0 0 1 13.5 13.75 z M 13.5 14.5 A 1 1 0 0 0 12.5 15.5 A 1 1 0 0 0 13.5 16.5 A 1 1 0 0 0 14.5 15.5 A 1 1 0 0 0 13.5 14.5 z "
     id="path4140" />
</svg>
